X:1
T:Alone I set out on the road | Выхожу один я на дорогу
T:Alone I set out on the road
T:Выхожу один я на дорогу - Vykhozu odin ya na dorogu
T:Mikhail Lermontov
T:V. Poponova
T:Alone I set out on the road; The flinty path is sparkling in the mist; The night is still. The desert harks to God, And star with star converses. The vault is overwhelmed with solemn wonder The earth in cobalt aura sleeps. . . Why do I feel so pained and troubled? What do I harbor: hope, regrets? I see no hope in years to come, Have no regrets for things gone by. All that I seek is peace and freedom! To lose myself and sleep! But not the frozen slumber of the grave... I'd like eternal sleep to leave My life force dozing in my breast Gently with my breath to rise and fall; By night and day, my hearing would be soothed By voices sweet, singing to me of love. And over me, forever green, A dark oak tree would bend and rustle. 
T:Выхожу один я на дорогу; Сквозь туман кремнистый путь блестит; Ночь тиха. Пустыня внемлет богу, И звезда с звездою говорит. В небесах торжественно и чудно! Спит земля в сиянье голубом... Что же мне так больно и так трудно? Жду ль чего? жалею ли о чём? Уж не жду от жизни ничего я, И не жаль мне прошлого ничуть; Я ищу свободы и покоя! Я б хотел забыться и заснуть! Но не тем холодным сном могилы... Я б желал навеки так заснуть, Чтоб в груди дремали жизни силы, Чтоб дыша вздымалась тихо грудь; Чтоб всю ночь, весь день мой слух лелея, Про любовь мне сладкий голос пел, Надо мной чтоб вечно зеленея Тёмный дуб склонялся и шумел. 
T:Vykhozhu odin ya na dorogu; Skvoz' tuman kremnistyy put' blestit; Noch' tikha. Pustynya vnemlet Bogu. I zvezda s zvezdoyu govorit. V nebesakh torzhestvenno i chudno! Spit zemlya v siyan'i golubom… Chto zhe mne tak bol'no i tak trudno? Zhdu l' chego? Zhaleyu li o chom? Uzh ne zhdu ot zhizni nichego ya, I ne zhal' mne proshlogo nichut'; Ya ishchu svobody i pokoya! Ya b khotel zabyt'sya i zasnut'! No ne tem kholodnym snom mogily… Ya b zhelal naveki tak zasnut', Chtob v grudi dremali zhizni sily, Chtob, dysha, vzdymalas' tikho grud'; Chtob vsyu noch', ves' den', moy slukh leleya, Pro lyubov' mne sladkiy golos pel, Nado mnoy chtob, vechno zeleneya, Tomnyy dub sklonyalsya i shumel. 
C:V. Poponova
Z:Mikhail Lermontov
%%score 1 { ( 2 4 ) | ( 3 5 ) }
L:1/8
M:4/4
K:Bb
V:1 bass nm="Voice" snm="Vo."
V:2 treble nm="Piano" snm="Pno."
V:4 treble 
V:3 bass 
V:5 bass 
V:1
 z4 z2 G,, B,,[Q:1/4=60] |: D,3 G,, G, G, F, E, | (D,3 B,,) G,,2 B,, C, | D,3 D, F, E, A,, B,, | %4
w: Vy kha|zhu a din ya na da|ro _ gu skvoz tu|man krem- ni styy put blye|
w: |sakh tor- zhest- vyen na i|chu _ na! Spit zyem|lya v si yan- ye ga lu|
 G,,4- G,, z D, B, | A,3 D, A, D, A, B, | (G,3 F,/E,/) D,2 E, E, | D,3 D, =E, ^F, G, A, | %8
w: stit; * Noch ti|kha pu sty nya vyem- lyet|bo _ _ gu, i zvyez-|da c svyez- do- yu ga va|
w: bom... * Chto zhye|mnye tak bol na i tak|trud- * * na zhdu l'chye|go? zha lye yu li o|
 B,4- B, z E, E, | D,3 D, F, E, A,, B,, |1 G,,4- G,, z G,, B,, :|2 G,,2- G,, z z4 || z8 | %13
w: rit * I zvyez-|da s zvyez- do- yu ga va|rit * V nye bye|chyem? *||
w: chyem? * Zhdu l'chye|ga, zha lye yu li o|_ _|||
 z4 z2 G,, B,, |: D,3 G,, G, G, F, E, | (D,3 B,,) G,,2 B,, C, | D,3 D, F, E, A,, B,, | %17
w: Uzh nye|zhdu ot zhiz- ni ni chye|go * ya, i nye|zhal mnye pro shla ga ni|
w: |tyem kha lod- nym snom ma|gi _ ly... ya b zhye|lal na vye ki tak za|
 G,,4- G,, z D, B, | A,3 D, A, D, A, B, | (G,3 F,/E,/) D,2 E, E, | D,3 D, =E, ^F, G, A, | %21
w: chut; * ya i-|shchu sva bo dy i pa|ko _ _ ya! Ya b kho|tyel za byt- sya i za|
w: snut * chtob v gru|di drye ma li zhiz ni|si _ _ li, chtob, dy|sha vzdy ma las ti kho|
 B,4- B, z E, E, | D,3 D, F, E, A,, B,, |1 G,,4- G,, z G,, B,, :|2 G,,4- G,, z G,, B,, || %25
w: snut, * ya b kho|tyel za byt- sya i za|zhut! * No nye|grud * Chto v syu|
w: grud, * shtob dy|sha vzdy ma las ti kho|||
 (D,3 G,,) G, G, F, E, | (D,3 B,,) G,,2 B,, C, | D,3 D, F, E, A,, B,, | G,,4- G,, z D, B, | %29
w: noch, vyes dyen moy slukh lye|_ _ ya, pra yu|bov mnye slad kiy go las|pyel... * na da|
w: ||||
 A,3 D, A, D, A, B, | (G,3 F,/E,/ D,2) E, E, | D,3 D, =E, ^F, G, A, | B,4- B, z E, E, | %33
w: mnoy chtob, vyech na zye lye|nye _ _ ya, tyem niy|dub skla nyal- sya i shu|myel, * tyem nyy|
w: ||||
 D,3 D, F, E, A, !fermata!B, |!>(! G,4- G,!>)! z z2 |] %35
w: dub skla nyal sya i shchu|myel *|
w: ||
V:2
!mp! z/ (D/B/G/ d/B/G/D/) z/ (D/B/G/ d/B/G/D/) |: z/ (D/B/G/ d/B/G/D/) z/ (D/B/G/ e/c/G/E/) | %2
 z/ (D/B/G/ d/B/G/D/) z/ (D/B/G/ d/B/G/D/) | z/ (D/B/G/ d/B/G/D/) e/c/G/E/ d/c/^F/D/ | %4
 z/ (D/B/G/ d/B/G/D/) z/ (D/B/G/ d/B/G/D/) | z/ (^C/E/A/) (c/A/^F/D/) z/ (D/F/A/ c/A/F/D/) | %6
 (B/G/D/B,/ D/G/B/d/) (g/d/B/G/) (e/c/G/E/) | (d/B/G/D/ B,/D/G/B/) (c/A/^F/D/ C/D/F/A/) | %8
 (B/B,/G/D/ d/B/G/D/) z/!>(! (E/c/G/ e/c/G/E/)!>)! | z/ (D/B/G/ d2) z2 !arpeggio![^Fcd]2 |1 %10
 z/ (D/B/G/ d/B/G/D/) z/ (D/B/G/ d/B/G/D/) :|2 %11
!<(! !arpeggio![dgbd']3 ([dd']!<)! [ff'][ee'])!>(! (ab)!>)! || %12
 [GBdg]3!<(! (d f!<)!!>(!e)!>)! (AB) |!p! z/ (D/B/G/ d/B/G/D/) z/ (D/B/G/ d/B/G/D/) |: %14
"_marcato" !///-!d2 B2 !///-!c2 G2 | !///-!B4 G4 | !///-!d2 B2 !///-!e c !///-!d c | %17
 (d2 b2!<(! ag f2)!<)! | ^c2 =c2!<(! (a3 d)!<)! |!>(! (bgdB!>)! G2) (e2 | d2 d'2) (c'2 ba | %21
!<(! d4!<)! g2)!>(! e2!>)! | (B!>(!c d2)!>)! z2 .[^Fcd]2 |1!<(! !///-!B4!<)!!>(! G4!>)! :|2 %24
!p! z/ (D/B/G/ d/B/G/D/) z/ (D/B/G/ d/B/G/D/) || z/ (D/B/G/ d/B/G/D/) z/ (D/B/G/ e/c/G/E/) | %26
 z/ (D/B/G/ d/B/G/D/) z/ (D/B/G/ d/B/G/D/) | z/ (D/B/G/ d/B/G/D/) (e/c/G/E/ d/c/^F/D/) | %28
 z/ (D/B/G/ d/B/G/D/) z/ (D/B/G/ d/B/G/D/) | z/ (^C/E/A/) (c/A/^F/D/) z/ (D/F/A/ c/A/F/D/) | %30
 (B/G/D/B,/ D/G/B/d/) (g/d/B/G/) (e/c/G/E/) | (d/B/G/D/ B,/D/G/B/) (c/A/^F/D/ C/D/F/A/) | %32
 (B/B,/G/D/ d/B/G/D/) z/!>(! (E/c/G/ e/c/G/E/)!>)! | z/ (F/B/G/ d2) z2 .!fermata![^Fcd^f]2 | %34
 z/!>(! (D/B/G/ d/g/b/g/ g'/)!>)! z/ z z2 |] %35
V:3
 (G,,D,B,D,) (G,,D,B,D,) |: (G,,D,B,D,) (G,,E,CE,) | (G,,D,B,D,) (G,,D,B,D,) | %3
 (G,,D,B,D,) (G,,D,B,D,) | (G,,D,B,D,) (G,,D,B,D,) | (A,,E,) (D,A,) (CA,^F,D,) | %6
 (G,,D,B,D,) (B,,G,) (C,A,) | (D,B,G,D,) (D,,D,^F,C) | (G,,D,B,D,) ([E,G,C]2 A,,2) | %9
 [D,G,B,]4 z2 !arpeggio![D,A,C]2 |1 (G,,D,B,D,) (G,,D,B,D,) :|2 %11
 (!arpeggio![G,,D,B,]/[K:treble]D/B/G/ d/B/G/D/)[K:bass] (A,,/[K:treble]E/c/G/)[K:bass] (D,/[K:treble]E/c/G/) || %12
 (G,,/D,/B,/G,/ D/B,/G,/D,/) (A,,/E,/G,/C/) (D,,/^F,/C/D/) | (G,,D,B,D,) (G,,D,B,D,) |: %14
 (G,2 F,2 E,2 A,,2) | (B,CDE D4) | (D,2 B,2) (A,G, ^F,2) | !///-!B,4 D4 | %18
 ([=E,=E]2 [D,D]2) (^F2 D2) | !///-!B,3 D3 [^C,^C]2 | [C,C]2 [B,,B,]2 [F,,F,]2 D,2 | %21
 [G,,G,]2 [F,,F,]2 [E,,E,]2 [F,,F,]2 | !///-!B,2 G,2 z2 .[D,C]2 |1 (B,C D4) E2 :|2 %24
 (G,,D,B,D,) (G,,D,B,D,) || (G,,D,B,D,) (G,,E,CD,) | (G,,D,B,D,) (G,,D,B,D,) | %27
 (G,,D,B,D,) (G,,D,B,D,) | (G,,D,B,D,) (G,,D,B,D,) | (A,,E,) (D,A,) (CA,^F,D,) | %30
 (G,,D,B,D,) (B,,G,) (C,A,) | (D,B,G,D,) (D,,D,^F,C) | (G,,D,B,D,) ([E,G,C]2 A,,2) | %33
 [D,G,B,]4 z2 .!fermata![D,C]2 | (G,,D,B,D B) z z2 |] %35
V:4
 x8 |: x8 | x8 | x8 | x8 | x8 | x8 | x8 | x8 | x8 |1 x8 :|2 x4 [gc']2 [c^f]2 || x4 [Gc]2 [C^F]2 | %13
 x8 |: x8 | x8 | x8 | B8 | !///-!A G !///-!A ^F !///-!d c d2 | x6 !///-!B G | %20
 !///-!A ^F !///-!g d !///-!g =e !///-!_e/c/ !///-!d/c/ | !///-!B2 G2 !///-!^c G !///-!=c G | %22
 G4 x4 |1 x8 :|2 x8 || x8 | x8 | x8 | x8 | x8 | x8 | x8 | x8 | x8 | x8 |] %35
V:5
 x8 |: x8 | x8 | x8 | x8 | x8 | x8 | x8 | x8 | x8 |1 x8 :|2 %11
 x/[K:treble] x7/2[K:bass] x/[K:treble] x3/2[K:bass] x/[K:treble] x3/2 || x8 | x8 |: G,,8 | %15
 !arpeggio![G,,D,]8 | G,,,4 !arpeggio!A,,2 !arpeggio!D,,2 | G,,8 | x8 | [G,,D,]6 x2 | x8 | x8 | %22
 D,4 x4 |1 [G,,D,]6 x2 :|2 x8 || x8 | x8 | x8 | x8 | x8 | x8 | x8 | x8 | x8 | x8 |] %35

